!!!!SEGMENT: pl-sa--l-1643--004_anonim--o-magnum-misterium.krn
!!!cenid: 16xx:1359
!!!COM: Anonim
!!!COM-rismid: pe30004985
!!!CDT:
!!!CNT:
!!!OTL: O magnum misterium
!!!PDT:
!!!AGN: Sacred
!!!SMS-siglum: PL-SA
!!!SMS-shelfmark: L 1643
!!!SMS-shelfwork: 004 W
!!!SMS-variant:
!!!SMS-altvar:
!!!NIFC-rismid: 1001064627
!!!URL-scan: http://repozytorium.nifc.pl/skany/pl-sa-nut--l1643
!!!ONB-nifc: UWAGA:8 ksiąg. Primi chori: 1mus Cantus (s. 13-14), C 2dus (s. 12-13), C 3tius (s. 12-13), Bassus (s. 12); Secondi chori: Primus Cantus (s. 11-12), C 2dus (s. 11-12), Altus (s. 11-12), Bassus (s. 11). UWAGA: metrum 2/2
!!!AIN: 8 empty
!!!key:
**kern	**text	**kern	**text	**kern	**text	**kern	**text	**kern	**text	**kern	**text	**kern	**text	**kern	**text
*part8	*part8	*part7	*part7	*part6	*part6	*part5	*part5	*part4	*part4	*part3	*part3	*part2	*part2	*part1	*part1
*staff8	*staff8	*staff7	*staff7	*staff6	*staff6	*staff5	*staff5	*staff4	*staff4	*staff3	*staff3	*staff2	*staff2	*staff1	*staff1
*Iempty	*	*Iempty	*	*Iempty	*	*Iempty	*	*Iempty	*	*Iempty	*	*Iempty	*	*Iempty	*
*I"Baſsus 2di Chori	*	*I"Altus secundi Chori.	*	*I"Cantus 2dus Secundi Chori.	*	*I"Primus Cantus 2di Chori	*	*I"Bassus Primi Chori.	*	*I"Cantus 3tius Primi Chori	*	*I"Cantus 2dus Primi Chori.	*	*I"Im(us) Cantus Primi Chori	*
*I'B	*	*I'A	*	*I'S 2	*	*I'S 1	*	*I'B	*	*I'S 3	*	*I'S 2	*	*I'S 1	*
*clefC3	*	*clefC2	*	*clefC1	*	*clefG2	*	*clefC3	*	*clefC2	*	*clefC1	*	*clefG2	*
*k[b-]	*	*k[b-]	*	*k[b-]	*	*k[b-]	*	*k[b-]	*	*k[b-]	*	*k[b-]	*	*k[b-]	*
*F:	*	*F:	*	*F:	*	*F:	*	*F:	*	*F:	*	*F:	*	*F:	*
*M2/2	*	*M2/2	*	*M2/2	*	*M2/2	*	*M2/2	*	*M2/2	*	*M2/2	*	*M2/2	*
*met(c|)	*	*met(c|)	*	*met(c|)	*	*met(c|)	*	*met(c|)	*	*met(c|)	*	*met(c|)	*	*met(c|)	*
=1-	=1-	=1-	=1-	=1-	=1-	=1-	=1-	=1-	=1-	=1-	=1-	=1-	=1-	=1-	=1-
!	!	!LO:TX:t=P:B-b-:problem=znaki przykluczowe	!	!	!	!	!	!	!	!LO:TX:t=P:B-b-:problem=znaki przykluczowe	!	!	!	!	!
0r	.	0r	.	0r	.	0r	.	0r	.	0r	.	0r	.	1cc	O
=2-	=2-	=2-	=2-	=2-	=2-	=2-	=2-	=2-	=2-	=2-	=2-	=2-	=2-	=2-	=2-
.	.	.	.	.	.	.	.	.	.	.	.	.	.	2a/	ma-
.	.	.	.	.	.	.	.	.	.	.	.	.	.	2f/	-gnum
=3-	=3-	=3-	=3-	=3-	=3-	=3-	=3-	=3-	=3-	=3-	=3-	=3-	=3-	=3-	=3-
1f	O	1f	O	1a	O	1a	O	1F	O	1f	O	1cc	O	1ff	o
=4-	=4-	=4-	=4-	=4-	=4-	=4-	=4-	=4-	=4-	=4-	=4-	=4-	=4-	=4-	=4-
2B-/	ma-	2f\	ma-	2f/	ma-	2b-/	ma-	2B-/	ma-	2f\	ma-	2dd\	ma-	2dd\	ma-
4B-/	-gnum	4f\	-gnum	4f/	-gnum	4b-/	-gnum	4B-/	-gnum	4f\	-gnum	4dd\	-gnum	4dd\	-gnum
4B-/	mi-	4f\	mi-	4f/	mi-	4b-/	mi-	4B-/	mi-	4f\	mi-	4dd\	mi-	4dd\	mi-
=5-	=5-	=5-	=5-	=5-	=5-	=5-	=5-	=5-	=5-	=5-	=5-	=5-	=5-	=5-	=5-
2.f\	-ſte-	2.f\	-ſte-	2.a\	-ſte-	2.cc\	-ſte-	2.F/	-ſte-	2.f\	-ſte-	2.cc\	-ſte-	2.ff\	-ſte-
4f\	-ri-	4f\	-ri-	4a\	-ri-	4cc\	-ri-	4F/	-ri-	4f\	-ri-	4cc\	-ri-	4ff\	-ri-
=6-	=6-	=6-	=6-	=6-	=6-	=6-	=6-	=6-	=6-	=6-	=6-	=6-	=6-	=6-	=6-
1B-	-um	1f	-um	1f	-um	1b-	-um	1B-	-um	1f	-um	1dd	-um	1dd	-um
=7-	=7-	=7-	=7-	=7-	=7-	=7-	=7-	=7-	=7-	=7-	=7-	=7-	=7-	=7-	=7-
0r	.	0r	.	0r	.	1dd	o	0r	.	0r	.	0r	.	0r	.
=8-	=8-	=8-	=8-	=8-	=8-	=8-	=8-	=8-	=8-	=8-	=8-	=8-	=8-	=8-	=8-
.	.	.	.	.	.	2b-/	ma-	.	.	.	.	.	.	.	.
.	.	.	.	.	.	2g/	-gnum	.	.	.	.	.	.	.	.
=9-	=9-	=9-	=9-	=9-	=9-	=9-	=9-	=9-	=9-	=9-	=9-	=9-	=9-	=9-	=9-
*	*ij	*	*ij	*	*ij	*	*	*	*ij	*	*	*	*	*	*
1G	o	1g	o	1b-	o	1dd	o	1g	O	1g	o	1b-	o	1dd	o
=10-	=10-	=10-	=10-	=10-	=10-	=10-	=10-	=10-	=10-	=10-	=10-	=10-	=10-	=10-	=10-
2G/	ma-	2g\	ma-	2b-\	ma-	2dd\	ma-	2g\	ma-	2g\	ma-	2b-\	ma-	2gg\	ma-
4G/	-gnum	4d/	-gnum	4dd\	-gnum	4dd\	-gnum	4g\	-gnum	4g\	-gnum	4b-\	-gnum	4gg\	-gnum
4G/	mi-	4d/	mi-	4dd\	mi-	4dd\	mi-	4g\	mi-	4g\	mi-	4b-\	mi-	4gg\	mi-
=11-	=11-	=11-	=11-	=11-	=11-	=11-	=11-	=11-	=11-	=11-	=11-	=11-	=11-	=11-	=11-
2.d\	-ſte-	2.f#X\	-ſte-	2.dd\	-ſte-	2.dd\	-ſte-	2.d\	-ſte-	2.a\	-ſte-	2.a\	-ſte-	2.ff#X\	-ſte-
4d\	-ri-	4f#\	-ri-	4dd\	-ri-	4dd\	-ri-	4d\	-ri-	4a\	-ri-	4a\	-ri-	4ff#\	-ri-
=12-	=12-	=12-	=12-	=12-	=12-	=12-	=12-	=12-	=12-	=12-	=12-	=12-	=12-	=12-	=12-
!	!	!	!	!LO:N:acc=#	!	!	!	!	!	!	!	!LO:N:acc=#	!	!	!
1G	-um	1d	-um	1bn	-um	1dd	-um	1g,	-um	1g	-um	1bn	-um	1gg	-um
*	*Xij	*	*Xij	*	*Xij	*	*	*	*Xij	*	*	*	*	*	*
=13-	=13-	=13-	=13-	=13-	=13-	=13-	=13-	=13-	=13-	=13-	=13-	=13-	=13-	=13-	=13-
00r	.	00r	.	00r	.	00r	.	2g\	et	2g\	et	2b-X\	et	2dd\	et
.	.	.	.	.	.	.	.	4g\	ad-	4g\	ad-	4b-\	ad-	4dd\	ad-
*	*	*	*	*	*	*	*	*	*	*custos:a	*	*	*	*	*
.	.	.	.	.	.	.	.	4g\	-mi-	4g\	-mi-	4b-\	-mi-	4dd\	-mi-
=14-	=14-	=14-	=14-	=14-	=14-	=14-	=14-	=14-	=14-	=14-	=14-	=14-	=14-	=14-	=14-
.	.	.	.	.	.	.	.	2.d\	-ra-	2.a\	-ra-	2.dd\	-ra-	2.ff\	-ra-
*	*	*	*	*	*	*	*	*	*	*	*	*	*	*custos:ff	*
.	.	.	.	.	.	.	.	4d\	-bi-	4a\	-bi-	4dd\	-bi-	4ff\	-bi-
!	!	!	!	!	!	!	!	!	!	!	!	!	!	!LO:LB:g=original	!
=15-	=15-	=15-	=15-	=15-	=15-	=15-	=15-	=15-	=15-	=15-	=15-	=15-	=15-	=15-	=15-
*	*	*	*	*	*	*	*	*custos:e-	*	*	*	*	*	*	*
!	!	!	!	!	!	!	!	!	!	!LO:TX:t=P:problem=pominięty takt	!	!	!	!	!
.	.	.	.	.	.	.	.	1d	-le	1ryy	.	4cc\	-le	1ff	-le
.	.	.	.	.	.	.	.	.	.	.	.	4b-\	.	.	.
.	.	.	.	.	.	.	.	.	.	.	.	4a\	.	.	.
*	*	*	*	*	*	*	*	*	*	*	*	*custos:g	*	*	*
.	.	.	.	.	.	.	.	.	.	.	.	4g/	.	.	.
!	!	!	!	!	!	!	!	!LO:LB:g=original	!	!	!	!LO:LB:g=original	!	!	!
=16-	=16-	=16-	=16-	=16-	=16-	=16-	=16-	=16-	=16-	=16-	=16-	=16-	=16-	=16-	=16-
!	!	!	!	!	!	!	!	!	!	!	!	!LO:TX:t=P:problem=pominięty takt	!	!	!
.	.	.	.	.	.	.	.	1.e-X	ſa-	2g\	-le	1ryy	.	4ee-X\	ſa-
.	.	.	.	.	.	.	.	.	.	.	.	.	.	4dd\	.
.	.	.	.	.	.	.	.	.	.	1g\	ſa-	.	.	4cc\	.
.	.	.	.	.	.	.	.	.	.	.	.	.	.	4b-/	.
=17-	=17-	=17-	=17-	=17-	=17-	=17-	=17-	=17-	=17-	=17-	=17-	=17-	=17-	=17-	=17-
0r	.	0r	.	0r	.	1r	.	.	.	.	.	2g/	ſa-	2cc\	.
.	.	.	.	.	.	.	.	2g\	-cra-	2g\	-cra-	2b-\	-cra-	2b-/	-cra-
=18-	=18-	=18-	=18-	=18-	=18-	=18-	=18-	=18-	=18-	=18-	=18-	=18-	=18-	=18-	=18-
.	.	.	.	.	.	1r	.	1f	-men-	1cc	-men-	(2b-\	-men-	2cc\	-men-
.	.	.	.	.	.	.	.	.	.	.	.	2a\)	.	2ff\	.
=19-	=19-	=19-	=19-	=19-	=19-	=19-	=19-	=19-	=19-	=19-	=19-	=19-	=19-	=19-	=19-
2B-/	et	2f\	et	2b-\	et	2dd\	et	1B-	-tum	1b-	-tum	1b-	-tum	1dd	-tum
4B-/	ad-	4f\	ad-	4b-\	ad-	4dd\	ad-	.	.	.	.	.	.	.	.
*custos:F	*	*	*	*	*	*custos:cc	*	*	*	*	*	*	*	*	*
4B-/	-mi-	4f\	-mi-	4b-\	-mi-	4dd\	-mi-	.	.	.	.	.	.	.	.
!	!	!	!	!	!	!LO:LB:g=original	!	!	!	!	!	!	!	!	!
=20-	=20-	=20-	=20-	=20-	=20-	=20-	=20-	=20-	=20-	=20-	=20-	=20-	=20-	=20-	=20-
2.F/	-ra-	2.f\	-ra-	2.a\	-ra-	2.cc\	-ra-	00r	.	00r	.	00r	.	00r	.
*	*	*custos:d	*	*	*	*	*	*	*	*	*	*	*	*	*
4F/	-bi-	4f\	-bi-	4a\	-bi-	4cc\	-bi-	.	.	.	.	.	.	.	.
!	!	!LO:LB:g=original	!	!	!	!	!	!	!	!	!	!	!	!	!
=21-	=21-	=21-	=21-	=21-	=21-	=21-	=21-	=21-	=21-	=21-	=21-	=21-	=21-	=21-	=21-
*	*	*	*	*custos:cc	*	*	*	*	*	*	*	*	*	*	*
1G	-le	2d/	-le	1b-	-le	1b-	-le	.	.	.	.	.	.	.	.
.	.	1g\	ſa-	.	.	.	.	.	.	.	.	.	.	.	.
!	!	!	!	!LO:LB:g=original	!	!	!	!	!	!	!	!	!	!	!
=22-	=22-	=22-	=22-	=22-	=22-	=22-	=22-	=22-	=22-	=22-	=22-	=22-	=22-	=22-	=22-
1.c	ſa-	.	.	2.cc\	ſa-	4cc\	.	.	.	.	.	.	.	.	.
.	.	.	.	.	.	4dd\	.	.	.	.	.	.	.	.	.
.	.	2g\	-cra-	.	.	4ee-X\	ſa-	.	.	.	.	.	.	.	.
.	.	.	.	4b-\	.	4dd\	.	.	.	.	.	.	.	.	.
=23-	=23-	=23-	=23-	=23-	=23-	=23-	=23-	=23-	=23-	=23-	=23-	=23-	=23-	=23-	=23-
.	.	1.g	-men-	2a\	.	2cc\	.	.	.	.	.	.	.	.	.
2e-X\	-cra-	.	.	2g/	-cra-	2cc\	-cra-	.	.	.	.	.	.	.	.
=24-	=24-	=24-	=24-	=24-	=24-	=24-	=24-	=24-	=24-	=24-	=24-	=24-	=24-	=24-	=24-
1d	-men-	.	.	1a	-men-	1dd	-me(n)-	1r	.	1r	.	1r	.	1r	.
.	.	2f#X\	.	.	.	.	.	.	.	.	.	.	.	.	.
=25-	=25-	=25-	=25-	=25-	=25-	=25-	=25-	=25-	=25-	=25-	=25-	=25-	=25-	=25-	=25-
!	!	!	!	!LO:N:acc=#	!	!	!	!	!	!	!	!	!	!	!
1G	-tum	1g	-tum	1bn	-tum	1dd	-tum	4r	.	4r	.	4r	.	4r	.
!	!	!	!	!	!	!	!	!	!	!	!	!LO:N:acc=#	!	!	!
.	.	.	.	.	.	.	.	4G/	et	4g\	et	4bn\	et	4dd\	et
.	.	.	.	.	.	.	.	4G/	ad-	4g\	ad-	4b\	ad-	4dd\	ad-
.	.	.	.	.	.	.	.	4G/	-mi-	4g\	-mi-	4b\	-mi-	4dd\	-mi-
=26-	=26-	=26-	=26-	=26-	=26-	=26-	=26-	=26-	=26-	=26-	=26-	=26-	=26-	=26-	=26-
4r	.	4r	.	4r	.	4r	.	4.c/	-ra-	4.g\	-ra-	4.cc\	-ra-	4.ee\	-ra-
4c/	et	4g\	et	4cc\	et	4cc\	et	.	.	.	.	.	.	.	.
.	.	.	.	.	.	.	.	8c/	-bi-	8g\	-bi-	8cc\	-bi-	8ee\	-bi-
4c/	ad-	4g\	ad-	4cc\	ad-	4cc\	ad-	2c/	-le	2g\	-le	2cc\	-le	2ee\	-le
4c/	-mi-	4g\	-mi-	4cc\	-mi-	4cc\	-mi-	.	.	.	.	.	.	.	.
=27-	=27-	=27-	=27-	=27-	=27-	=27-	=27-	=27-	=27-	=27-	=27-	=27-	=27-	=27-	=27-
4.f\	-ra-	4.a\	-ra-	4.a\	-ra-	4.cc\	-ra-	4r	.	4r	.	4r	.	4r	.
*	*	*	*	*	*	*	*	*	*ij	*	*ij	*	*ij	*	*ij
.	.	.	.	.	.	.	.	4F/	et	4f\	et	4cc\	et	4ff\	et
8f\	-bi-	8a\	-bi-	8a\	-bi-	8cc\	-bi-	.	.	.	.	.	.	.	.
2f\	-le	2a\	-le	2a\	-le	2cc\	-le	4F/	ad-	4f\	ad-	4cc\	ad-	4ff\	ad-
.	.	.	.	.	.	.	.	4F/	-mi-	4f\	-mi-	4cc\	-mi-	4ff\	-mi-
=28-	=28-	=28-	=28-	=28-	=28-	=28-	=28-	=28-	=28-	=28-	=28-	=28-	=28-	=28-	=28-
4r	.	4r	.	4r	.	4r	.	4.B-/	-ra-	4.f\	-ra-	4.b-\	-ra-	4.dd\	-ra-
*	*ij	*	*ij	*	*ij	*	*ij	*	*	*	*	*	*	*	*
4B-/	et	4b-\	et	4b-\	et	4dd\	et	.	.	.	.	.	.	.	.
.	.	.	.	.	.	.	.	8B-/	-bi-	8f\	-bi-	8b-\	-bi-	8ee\	-bi-
!	!	!	!	!	!	!	!	!	!	!	!	!	!	!	!
4B-/	ad-	4b-\	ad-	4b-\	ad-	4dd\	ad-	2B-/	-le	2f\	-le	2b-\	-le	2ff\	-le
*	*	*	*	*	*	*	*	*	*Xij	*	*Xij	*	*Xij	*	*Xij
4B-/	-mi-	4b-\	-mi-	4b-\	-mi-	4dd\	-mi-	.	.	.	.	.	.	.	.
!	!	!	!	!	!	!	!	!	!	!	!	!	!	!	!
=29-	=29-	=29-	=29-	=29-	=29-	=29-	=29-	=29-	=29-	=29-	=29-	=29-	=29-	=29-	=29-
*	*	*	*	*	*	*	*	*	*	*custos:f	*	*	*	*	*
4.e-X\	-ra-	4.g\	-ra-	4.b-\	-ra-	4.ee-X\	-ra-	1r	.	1r	.	1r	.	1r	.
8e-\	-bi-	8g\	-bi-	8b-\	-bi-	8ee-\	-bi-	.	.	.	.	.	.	.	.
2e-\	-le	2g\	-le	2b-\	-le	2ee-\	-le	.	.	.	.	.	.	.	.
*	*Xij	*	*Xij	*	*Xij	*	*Xij	*	*	*	*	*	*	*	*
!	!	!	!	!	!	!	!	!	!	!LO:LB:g=original	!	!	!	!	!
=30-	=30-	=30-	=30-	=30-	=30-	=30-	=30-	=30-	=30-	=30-	=30-	=30-	=30-	=30-	=30-
1.B-	ſa-	1.f	ſa-	1a	ſa-	4b-\	.	1.B-	ſa-	1.f	ſa-	4dd\	ſa-	4dd\	.
.	.	.	.	.	.	4cc\	ſa-	.	.	.	.	4cc\	.	4ee\	.
.	.	.	.	.	.	4dd\	.	.	.	.	.	4b-\	.	4ff\	ſa-
*	*	*	*	*	*	*custos:dd	*	*	*	*	*	*	*	*custos:dd	*
.	.	.	.	.	.	4cc\	.	.	.	.	.	4a\	.	4ee\	.
!	!	!	!	!	!	!LO:LB:g=original	!	!	!	!	!	!	!	!LO:LB:g=original	!
=31-	=31-	=31-	=31-	=31-	=31-	=31-	=31-	=31-	=31-	=31-	=31-	=31-	=31-	=31-	=31-
.	.	.	.	1f	-cra-	2dd\	.	.	.	.	.	2b-\	.	4dd\	.
.	.	.	.	.	.	.	.	.	.	.	.	.	.	4ee\	.
2F/	-cra-	2f\	-cra-	.	.	2cc\	-cra-	2f\	-cra-	2a\	-cra-	2cc\	-cra-	4ff\	.
.	.	.	.	.	.	.	.	.	.	.	.	.	.	4gg\	.
=32-	=32-	=32-	=32-	=32-	=32-	=32-	=32-	=32-	=32-	=32-	=32-	=32-	=32-	=32-	=32-
*custos:F	*	*	*	*	*	*	*	*	*	*	*	*	*	*	*
0c	-men-	2g\	-men-	2g/	.	0cc	-men-	0c	-men-	2g\	-men-	0cc	-men-	2ee\	-cra-
.	.	2f\	.	2a\	-men-	.	.	.	.	2a\	.	.	.	1ff\	-men-
=33-	=33-	=33-	=33-	=33-	=33-	=33-	=33-	=33-	=33-	=33-	=33-	=33-	=33-	=33-	=33-
*	*	*custos:f	*	*	*	*	*	*	*	*	*	*	*	*	*
.	.	1g	-tum	2g/	.	.	.	.	.	1g	.	.	.	.	.
*	*	*	*	*custos:a	*	*	*	*	*	*	*	*	*	*	*
.	.	.	.	2cc\	.	.	.	.	.	.	.	.	.	2ee\	.
!LO:LB:g=original	!	!LO:LB:g=original	!	!LO:LB:g=original	!	!	!	!	!	!	!	!	!	!	!
=34-	=34-	=34-	=34-	=34-	=34-	=34-	=34-	=34-	=34-	=34-	=34-	=34-	=34-	=34-	=34-
*	*	*	*	*	*	*	*	*custos:f	*	*	*	*custos:a	*	*	*
1F	-tum	1f	.	1a	-tum	1cc	-tum	1f	-tum	1a	-tum	1cc	-tum	1ff	-tum
!	!	!	!	!	!	!	!	!LO:LB:g=original	!	!	!	!LO:LB:g=original	!	!	!
=35-	=35-	=35-	=35-	=35-	=35-	=35-	=35-	=35-	=35-	=35-	=35-	=35-	=35-	=35-	=35-
00r	.	00r	.	00r	.	00r	.	1f	Ut	1f	Ut	1a	Ut	1cc	ut
=36-	=36-	=36-	=36-	=36-	=36-	=36-	=36-	=36-	=36-	=36-	=36-	=36-	=36-	=36-	=36-
.	.	.	.	.	.	.	.	2d\	a-	2f\	a-	2b-\	a-	2dd\	a-
.	.	.	.	.	.	.	.	2d\	-ni-	2f\	-ni-	2b-\	-ni-	2dd\	-ni-
=37-	=37-	=37-	=37-	=37-	=37-	=37-	=37-	=37-	=37-	=37-	=37-	=37-	=37-	=37-	=37-
.	.	.	.	.	.	.	.	2d\	-ma-	2.f\	-ma-	2.b-\	-ma-	2.dd\	-ma-
.	.	.	.	.	.	.	.	2d\	-li-	.	.	.	.	.	.
.	.	.	.	.	.	.	.	.	.	4f\	-li-	4a\	-li-	4dd\	-li-
=38-	=38-	=38-	=38-	=38-	=38-	=38-	=38-	=38-	=38-	=38-	=38-	=38-	=38-	=38-	=38-
.	.	.	.	.	.	.	.	2e-X\	-a	2g\	-a	2g/	-a	2b-/	-a
.	.	.	.	.	.	.	.	2e-\	ui-	2g\	ui-	2b-\	ui-	2b-/	ui-
=39-	=39-	=39-	=39-	=39-	=39-	=39-	=39-	=39-	=39-	=39-	=39-	=39-	=39-	=39-	=39-
0r	.	0r	.	0r	.	0r	.	1c	-de-	(2g\	-de-	(2b-\	-de-	1ee-X	-de-
.	.	.	.	.	.	.	.	.	.	2a\)	.	2a\)	.	.	.
=40-	=40-	=40-	=40-	=40-	=40-	=40-	=40-	=40-	=40-	=40-	=40-	=40-	=40-	=40-	=40-
.	.	.	.	.	.	.	.	2B-/	-rerent	2f\	-rent	2b-\	-rent	2dd\	-rent
.	.	.	.	.	.	.	.	2.B-/	Do-	2.f\	Do-	2.b-\	Do-	2.dd\	Do-
=41-	=41-	=41-	=41-	=41-	=41-	=41-	=41-	=41-	=41-	=41-	=41-	=41-	=41-	=41-	=41-
1r	.	1r	.	1r	.	1r	.	.	.	.	.	.	.	.	.
.	.	.	.	.	.	.	.	4B-/	-mi-	4f\	-mi-	4b-\	-mi-	4dd\	-mi-
.	.	.	.	.	.	.	.	2B-/	-nu(m)	2f\	-num	2b-\	-num	2dd\	-num
=42-	=42-	=42-	=42-	=42-	=42-	=42-	=42-	=42-	=42-	=42-	=42-	=42-	=42-	=42-	=42-
!	!	!	!	!LO:TX:t=P::problem=pauza niewidoczna&colon; defekt	!	!	!	!	!	!	!	!	!	!	!
2r	.	2r	.	2ryy	.	2r	.	1f	na-	1a	na-	1cc	na-	1ff	na-
2.F/	Do-	2.a\	Do-	2.cc\	Do-	2.ff\	Do-	.	.	.	.	.	.	.	.
=43-	=43-	=43-	=43-	=43-	=43-	=43-	=43-	=43-	=43-	=43-	=43-	=43-	=43-	=43-	=43-
*	*	*	*	*	*	*	*	*	*	*custos:f	*	*	*	*	*
.	.	.	.	.	.	.	.	1f	-tum	1a	-tum	1a	-tum	1cc	-tum
4F/	-mi-	4a\	-mi-	4cc\	-mi-	4ff\	-mi-	.	.	.	.	.	.	.	.
2F/	-num	2f\	-num	2a\	-num	2cc\	-num	.	.	.	.	.	.	.	.
!	!	!	!	!	!	!	!	!	!	!LO:LB:g=original	!	!	!	!	!
=44-	=44-	=44-	=44-	=44-	=44-	=44-	=44-	=44-	=44-	=44-	=44-	=44-	=44-	=44-	=44-
1B-	na-	1f	na-	1b-	na-	1dd	na-	2r	.	2r	.	2r	.	2r	.
.	.	.	.	.	.	.	.	2.B-/	Do-	2.f\	Do-	2.b-\	Do-	2.dd\	Do-
=45-	=45-	=45-	=45-	=45-	=45-	=45-	=45-	=45-	=45-	=45-	=45-	=45-	=45-	=45-	=45-
1B-	-tum	1f	-tum	1b-	-tum	1dd	-tum	.	.	.	.	.	.	.	.
.	.	.	.	.	.	.	.	4B-/	-mi-	4f\	-mi-	4b-\	-mi-	4dd\	-mi-
*	*	*	*	*	*	*	*	*	*	*	*	*	*	*custos:cc	*
.	.	.	.	.	.	.	.	2B-/	-nu(m)	2f\	-num	2b-\	-num	2dd\	-num
!	!	!	!	!	!	!	!	!	!	!	!	!	!	!LO:LB:g=original	!
=46-	=46-	=46-	=46-	=46-	=46-	=46-	=46-	=46-	=46-	=46-	=46-	=46-	=46-	=46-	=46-
00r	.	00r	.	00r	.	00r	.	2F/	na-	2f\	na-	2a\	na-	2cc\	na-
.	.	.	.	.	.	.	.	4F/	-tu(m)	4f\	-tu(m)	4a\	-tum	4cc\	-tum
.	.	.	.	.	.	.	.	4F/	ia-	4f\	ia-	4a\	ia-	4cc\	ia-
=47-	=47-	=47-	=47-	=47-	=47-	=47-	=47-	=47-	=47-	=47-	=47-	=47-	=47-	=47-	=47-
.	.	.	.	.	.	.	.	2G/	-cen-	2d/	-cen-	2b-\	-cen-	2b-/	-cen-
*	*	*	*	*	*	*	*	*	*	*	*	*custos:g	*	*	*
.	.	.	.	.	.	.	.	2G/	-tem	2g\	-tem	2b-\	-tem	2dd\	.
!	!	!	!	!	!	!	!	!	!	!	!	!LO:LB:g=original	!	!	!
=48-	=48-	=48-	=48-	=48-	=48-	=48-	=48-	=48-	=48-	=48-	=48-	=48-	=48-	=48-	=48-
.	.	.	.	.	.	.	.	1.c	in	2.e/	in	1.g	in	1.cc	-tum
.	.	.	.	.	.	.	.	.	.	4d/	.	.	.	.	.
=49-	=49-	=49-	=49-	=49-	=49-	=49-	=49-	=49-	=49-	=49-	=49-	=49-	=49-	=49-	=49-
.	.	.	.	.	.	.	.	.	.	4e/	.	.	.	.	.
!	!	!	!	!	!	!	!	!	!	!LO:TX:t=P:problem=# below	!	!	!	!	!
.	.	.	.	.	.	.	.	.	.	4f#X\	prae-	.	.	.	.
*	*	*	*	*	*	*	*	*custos:A	*	*	*	*	*	*	*
.	.	.	.	.	.	.	.	2B-/	prae-	1g\	.	2g/	prae-	2dd\	in-
!	!	!	!	!	!	!	!	!LO:LB:g=original	!	!	!	!	!	!	!
=50-	=50-	=50-	=50-	=50-	=50-	=50-	=50-	=50-	=50-	=50-	=50-	=50-	=50-	=50-	=50-
00r	.	00r	.	00r	.	00r	.	0A	-ſe-	.	.	2.a\	-ſe-	2.cc\	-prae-
!	!	!	!	!	!	!	!	!	!	!LO:TX:t=P:problem=# below	!	!	!	!	!
.	.	.	.	.	.	.	.	.	.	4f#X\	.	.	.	.	.
.	.	.	.	.	.	.	.	.	.	4e\	.	4a\	-pi-	4b-/	-ſe-
=51-	=51-	=51-	=51-	=51-	=51-	=51-	=51-	=51-	=51-	=51-	=51-	=51-	=51-	=51-	=51-
.	.	.	.	.	.	.	.	.	.	2f#X\	-ſe-	1a	-o	2.cc\	.
.	.	.	.	.	.	.	.	.	.	2f#\	-pi-	.	.	.	.
.	.	.	.	.	.	.	.	.	.	.	.	.	.	4dd\	.
=52-	=52-	=52-	=52-	=52-	=52-	=52-	=52-	=52-	=52-	=52-	=52-	=52-	=52-	=52-	=52-
!	!	!	!	!	!	!	!	!	!	!	!	!LO:N:acc=#	!	!	!
.	.	.	.	.	.	.	.	1.G	.	0.g	-o	2bn\	in	2ee-X\	.
.	.	.	.	.	.	.	.	.	.	.	.	2cc\	prae-	4dd\	.
.	.	.	.	.	.	.	.	.	.	.	.	.	.	4cc\	.
=53-	=53-	=53-	=53-	=53-	=53-	=53-	=53-	=53-	=53-	=53-	=53-	=53-	=53-	=53-	=53-
.	.	.	.	.	.	.	.	.	.	.	.	2cc\	-ſe-	2.dd\	.
!	!	!	!	!	!	!	!	!	!	!	!	!LO:N:acc=#	!	!	!
.	.	.	.	.	.	.	.	2G/	-pi-	.	.	2bn\	-pi-	.	.
.	.	.	.	.	.	.	.	.	.	.	.	.	.	4dd\	-pi-
=54-	=54-	=54-	=54-	=54-	=54-	=54-	=54-	=54-	=54-	=54-	=54-	=54-	=54-	=54-	=54-
4r	.	4r	.	4r	.	4r	.	1c	-o	.	.	1cc	-o	1cc	-o
*	*ij	*	*ij	*	*ij	*	*	*	*	*	*	*	*	*	*
4.c/	Do-	4.g\	Do-	4.cc\	Do-	4.ee\	Do-	.	.	.	.	.	.	.	.
8c/	-mi-	8g\	-mi-	8cc\	-mi-	8ee\	-mi-	.	.	.	.	.	.	.	.
4c/	-num	4g\	-num	4cc\	-num	4ee\	-num	.	.	.	.	.	.	.	.
=55-	=55-	=55-	=55-	=55-	=55-	=55-	=55-	=55-	=55-	=55-	=55-	=55-	=55-	=55-	=55-
2f\	na-	2a\	na-	2cc\	na-	2ff\	na-	4r	.	4r	.	4r	.	4r	.
.	.	.	.	.	.	.	.	4.f\	Do-	4.a\	Do-	4.cc\	Do-	4.ff\	Do-
2f\	-tum	2a\	-tum	2cc\	-tum	2ff\	-tum	.	.	.	.	.	.	.	.
*	*Xij	*	*Xij	*	*Xij	*	*	*	*	*	*	*	*	*	*
.	.	.	.	.	.	.	.	8f\	-mi-	8a\	-mi-	8cc\	-mi-	8ff\	-mi-
.	.	.	.	.	.	.	.	4f\	-num	4a\	-num	4cc\	-num	4ff\	-num
=56-	=56-	=56-	=56-	=56-	=56-	=56-	=56-	=56-	=56-	=56-	=56-	=56-	=56-	=56-	=56-
00r	.	00r	.	00r	.	00r	.	2d\	na-	2a\	na-	2dd\	na-	2ff\	na-
.	.	.	.	.	.	.	.	4d\	-tum	4a\	-tum	4dd\	-tum	4ff\	-tum
*	*	*	*	*	*	*	*	*	*	*custos:a	*	*	*	*	*
.	.	.	.	.	.	.	.	4d\	ia-	4a\	ia-	4dd\	ia-	4ff\	ia-
!	!	!	!	!	!	!	!	!	!	!LO:LB:g=original	!	!	!	!	!
=57-	=57-	=57-	=57-	=57-	=57-	=57-	=57-	=57-	=57-	=57-	=57-	=57-	=57-	=57-	=57-
.	.	.	.	.	.	.	.	2A/	-cen-	2a\	-cen-	2cc#\	-cen-	2ee\	-cen-
*	*	*	*	*	*	*	*	*	*	*	*	*	*	*custos:ee	*
.	.	.	.	.	.	.	.	2A/	-tem	2a\	-tem	2cc#\	-tem	2ee\	-tem
!	!	!	!	!	!	!	!	!	!	!	!	!	!	!LO:PB:g=original	!
=58-	=58-	=58-	=58-	=58-	=58-	=58-	=58-	=58-	=58-	=58-	=58-	=58-	=58-	=58-	=58-
.	.	.	.	.	.	.	.	2A/	in	2a\	in	2cc#\	in	2ee\	in
.	.	.	.	.	.	.	.	2B-X/	prae-	2d/	prae-	2dd\	prae-	2dd\	prae-
=59-	=59-	=59-	=59-	=59-	=59-	=59-	=59-	=59-	=59-	=59-	=59-	=59-	=59-	=59-	=59-
.	.	.	.	.	.	.	.	1.A	-ſe-	1.a	-ſe-	2cc#X\	-ſe-	2ee\	-ſe-
.	.	.	.	.	.	.	.	.	.	.	.	1dd\	.	2ff\	.
=60-	=60-	=60-	=60-	=60-	=60-	=60-	=60-	=60-	=60-	=60-	=60-	=60-	=60-	=60-	=60-
2r	.	2r	.	2r	.	2r	.	.	.	.	.	.	.	2.ee\	.
*	*	*	*	*	*	*	*	*	*	*	*	*custos:dd	*	*	*
2a\	ia-	2e/	ia-	2a\	ia-	2a/	ia-	2A/	-pi-	2a\	-pi-	2cc#X\	-pi-	.	.
.	.	.	.	.	.	.	.	.	.	.	.	.	.	4ee\	-pi-
!	!	!	!	!	!	!	!	!	!	!	!	!LO:LB:g=original	!	!	!
=61-	=61-	=61-	=61-	=61-	=61-	=61-	=61-	=61-	=61-	=61-	=61-	=61-	=61-	=61-	=61-
2d\	-cen-	2f#X\	-cen-	2a\	-cen-	2a/	-cen-	1d	-o	1f#X	-o	1dd	-o	1dd	-o
2d\	-tem	2f#\	-tem	2a\	-tem	2dd\	-tem	.	.	.	.	.	.	.	.
=62-	=62-	=62-	=62-	=62-	=62-	=62-	=62-	=62-	=62-	=62-	=62-	=62-	=62-	=62-	=62-
!	!	!	!	!LO:N:acc=#	!	!	!	!	!	!	!	!	!	!	!
2G/	in	2g\	in	2bn\	in	2dd\	in	2r	.	2r	.	2r	.	2r	.
*	*	*	*	*	*	*custos:ee	*	*	*	*	*	*	*	*	*
!	!	!	!	!	!	!	!	!	!	!	!	!LO:N:acc=#	!	!	!
2G/	prae-	2g\	prae-	2b\	prae-	2dd\	prae-	2g\	ia-	2g\	ia-	2bn\	ia-	2dd\	ia-
!	!	!	!	!	!	!LO:PB:g=original	!	!	!	!	!	!	!	!	!
=63-	=63-	=63-	=63-	=63-	=63-	=63-	=63-	=63-	=63-	=63-	=63-	=63-	=63-	=63-	=63-
2.c/	-ſe-	2.g\	-ſe-	2.cc\	-ſe-	2.ee\	-ſe-	2c/	-cen-	2g\	-cen-	2cc\	-cen-	2cc\	-cen-
.	.	.	.	.	.	.	.	2c/	-tem	2g\	-tem	2cc\	-tem	2cc\	-tem
4c/	-pi-	4g\	-pi-	4cc\	-pi-	4ee\	-pi-	.	.	.	.	.	.	.	.
=64-	=64-	=64-	=64-	=64-	=64-	=64-	=64-	=64-	=64-	=64-	=64-	=64-	=64-	=64-	=64-
*custos:B-	*	*custos:f	*	*	*	*	*	*custos:f	*	*	*	*	*	*	*
1F	-o	1f	-o	1cc	-o	1ff	-o	2f\	in	2a\	in	2a\	in	2cc\	in
!	!	!	!	!	!	!	!	!LO:LB:g=original	!	!	!	!	!	!	!
.	.	.	.	.	.	.	.	2f\	prae-	2a\	prae-	2cc\	prae-	2ff\	prae-
!LO:LB:g=original	!	!LO:LB:g=original	!	!	!	!	!	!	!	!	!	!	!	!	!
=65-	=65-	=65-	=65-	=65-	=65-	=65-	=65-	=65-	=65-	=65-	=65-	=65-	=65-	=65-	=65-
2r	.	2r	.	2r	.	2r	.	2.B-/	-ſe-	2.f\	-ſe-	2.b-\	-ſe-	2.dd\	-ſe-
*	*	*	*	*custos:cc	*	*	*	*	*	*	*	*	*	*	*
2B-/	ia-	2f\	ia-	2b-\	ia-	2dd\	ia-	.	.	.	.	.	.	.	.
.	.	.	.	.	.	.	.	4B-/	-pi-	4f\	-pi-	4b-\	-pi-	4dd\	-pi-
!	!	!	!	!LO:LB:g=original	!	!	!	!	!	!	!	!	!	!	!
=66-	=66-	=66-	=66-	=66-	=66-	=66-	=66-	=66-	=66-	=66-	=66-	=66-	=66-	=66-	=66-
2f\	-cen-	2f\	-cen-	2cc\	-cen-	2cc\	-cen-	2F/	-o	2f\	-o	2a\	-o	2ff\	-o
2f\	-tem	2f\	-tem	2cc\	-tem	2cc\	-tem	4f\	in	4f\	in	4a\	in	4ff\	in
.	.	.	.	.	.	.	.	4f\	prae-	4f\	prae-	4a\	prae-	4ff\	prae-
=67-	=67-	=67-	=67-	=67-	=67-	=67-	=67-	=67-	=67-	=67-	=67-	=67-	=67-	=67-	=67-
2B-/	in	2f\	in	2b-\	in	2dd\	in	2.B-/	-ſe-	2.f\	-ſe-	2.b-\	-ſe-	2.dd\	-ſe-
2B-/	prae-	2f\	prae-	2b-\	prae-	2dd\	prae-	.	.	.	.	.	.	.	.
.	.	.	.	.	.	.	.	4B-/	-pi-	4f\	-pi-	4b-\	-pi-	4dd\	-pi-
=68-	=68-	=68-	=68-	=68-	=68-	=68-	=68-	=68-	=68-	=68-	=68-	=68-	=68-	=68-	=68-
1.f	-ſe-	1.f	-ſe-	4.cc\	-ſe-	4.cc\	-ſe-	2F/	-o	2f\	-o	2a\	-o	2ff\	-o
.	.	.	.	8cc\	-pi-	8cc\	-pi-	.	.	.	.	.	.	.	.
.	.	.	.	2b-\	-o	2dd\	-o	1B-/	in	1f\	in	1b-\	in	4ff\	in
.	.	.	.	.	.	.	.	.	.	.	.	.	.	4ee\	.
=69-	=69-	=69-	=69-	=69-	=69-	=69-	=69-	=69-	=69-	=69-	=69-	=69-	=69-	=69-	=69-
.	.	.	.	1.b-	in	2.dd\	in	.	.	.	.	.	.	4dd\	.
.	.	.	.	.	.	.	.	.	.	.	.	.	.	4cc\	.
*	*	*	*	*	*	*	*	*	*	*custos:g	*	*	*	*custos:ee	*
2f\	-pi-	2f\	-pi-	.	.	.	.	2d\	prae-	2f\	prae-	2a\	prae-	2dd\	.
.	.	.	.	.	.	4dd\	prae-	.	.	.	.	.	.	.	.
!	!	!	!	!	!	!	!	!	!	!LO:PB:g=original	!	!	!	!LO:LB:g=original	!
=70-	=70-	=70-	=70-	=70-	=70-	=70-	=70-	=70-	=70-	=70-	=70-	=70-	=70-	=70-	=70-
!	!	!	!	!	!	!	!	!	!	!	!	!	!	!	!
2c/	-o	2e/	-o	.	.	2g/	-ſe-	1.c	-ſe-	2g\	-ſe-	1.cc	-ſe-	2ee\	prae-
4c/	in	4a\	in	2a\	prae-	2cc\	-pi-	.	.	2a\	.	.	.	1ff\	-ſe-
4c/	prae-	4f\	prae-	.	.	.	.	.	.	.	.	.	.	.	.
=71-	=71-	=71-	=71-	=71-	=71-	=71-	=71-	=71-	=71-	=71-	=71-	=71-	=71-	=71-	=71-
2.c/	-ſe-	2.g\	-ſe-	2.cc\	-ſe-	0cc	-o	.	.	2.g\	.	.	.	.	.
.	.	.	.	.	.	.	.	2c/	-pi-	.	.	2cc\	-pi-	2ee\	-pi-
4c/	-pi-	4g\	-pi-	4cc\	-pi-	.	.	.	.	4g\	-pi-	.	.	.	.
=72-	=72-	=72-	=72-	=72-	=72-	=72-	=72-	=72-	=72-	=72-	=72-	=72-	=72-	=72-	=72-
1f	-o	1f	-o	1cc	-o	.	.	2F,/	-o	2a\	-o	2a\	-o	2ff\	-o
.	.	.	.	.	.	.	.	2f\	Al-	2a\	Al-	2cc\	Al-	2ff\	Al-
=73-	=73-	=73-	=73-	=73-	=73-	=73-	=73-	=73-	=73-	=73-	=73-	=73-	=73-	=73-	=73-
1r	.	1r	.	1r	.	1r	.	4c/	-le-	4g\	-le-	4cc\	-le-	4ee\	-le-
.	.	.	.	.	.	.	.	4c/	-lu-	4g\	-lu-	4cc\	-lu-	4ee\	-lu-
.	.	.	.	.	.	.	.	4d\	-ia	4f\	-ia	4a\	-ia	4dd\	-ia
*	*	*	*	*	*	*	*	*	*	*	*	*custos:b	*	*	*
.	.	.	.	.	.	.	.	4B-X/	al-	4g\	al-	4b-\	al-	4dd\	al-
!	!	!	!	!	!	!	!	!	!	!	!	!LO:LB:g=original	!	!	!
=74-	=74-	=74-	=74-	=74-	=74-	=74-	=74-	=74-	=74-	=74-	=74-	=74-	=74-	=74-	=74-
2r	.	2r	.	2r	.	2r	.	4G/	-le-	4g\	-le-	4b-\	-le-	4dd\	-le-
.	.	.	.	.	.	.	.	4A/	-lu-	4e/	-lu-	4a\	-lu-	4cc#X\	-lu-
2d\	Al-	2a\	Al-	2dd\	Al-	2ff\	Al-	2d\	-ia	2f\	-ia	2a\	-ia	2dd\	-ia
=75-	=75-	=75-	=75-	=75-	=75-	=75-	=75-	=75-	=75-	=75-	=75-	=75-	=75-	=75-	=75-
4A/	-le-	4a\	-le-	4cc\	-le-	4ee\	-le-	1r	.	1r	.	1r	.	1r	.
4B-/	-lu-	4f\	-lu-	4b-\	-lu-	4dd\	-lu-	.	.	.	.	.	.	.	.
4f\	-ia	4a\	-ia	4a\	-ia	4cc\	-ia	.	.	.	.	.	.	.	.
4g\	al-	4g\	Al-	4g/	Al-	4b-/	Al-	.	.	.	.	.	.	.	.
=76-	=76-	=76-	=76-	=76-	=76-	=76-	=76-	=76-	=76-	=76-	=76-	=76-	=76-	=76-	=76-
4d\	-le-	4f#X\	-le-	4a\	-le-	4dd\	-le-	2r	.	2r	.	2r	.	2r	.
*	*	*	*	*	*	*custos:dd	*	*	*	*	*	*	*	*	*
4e-X\	-lu-	2g\	-lu-	4g/	-lu-	4cc\	-lu-	.	.	.	.	.	.	.	.
!	!	!	!	!	!	!LO:LB:g=original	!	!	!	!	!	!	!	!	!
2d\	-ia	.	.	2a\	-ia	2dd\	-ia	4d\	Al-	4a\	Al-	4dd\	Al-	4ff#X\	Al-
*	*	*	*	*	*	*	*	*custos:G	*	*	*	*	*	*	*
.	.	4f#\	-ia	.	.	.	.	4d\	-le-	4a\	-le-	4dd\	-le-	4ff#\	-le-
!	!	!	!	!	!	!	!	!LO:LB:g=original	!	!	!	!	!	!	!
=77-	=77-	=77-	=77-	=77-	=77-	=77-	=77-	=77-	=77-	=77-	=77-	=77-	=77-	=77-	=77-
4g\	Al-	4d/	al-	4b-\	Al-	4dd\	al-	2G/	-lu-	2b-X\	-lu-	2dd\	-lu-	2gg\	-lu-
*custos:c	*	*	*	*	*	*	*	*	*	*	*	*	*	*	*
4g\	-le-	4g\	-le-	4b-\	-le-	4dd\	-le-	.	.	.	.	.	.	.	.
*	*	*custos:g	*	*	*	*	*	*	*	*	*	*	*	*	*
!LO:LB:g=original	!	!	!	!	!	!	!	!	!	!	!	!	!	!	!
2c/	-lu-	2g\	-lu-	2cc\	-lu-	2ee\	-lu-	2c/	-ia	2g\	-ia	2cc,\	-ia	2ee\	-ia
!	!	!LO:PB:g=original	!	!	!	!	!	!	!	!	!	!	!	!	!
=78-	=78-	=78-	=78-	=78-	=78-	=78-	=78-	=78-	=78-	=78-	=78-	=78-	=78-	=78-	=78-
*	*	*	*	*	*	*	*	*	*ij	*	*	*	*ij	*	*ij
2c/	-ia	2g\	-ia	2cc\	-ia	2cc\	-ia	4c/	al-	4g\	al-	4cc\	al-	4ee\	al-
.	.	.	.	.	.	.	.	4c/	-le-	4g\	-le-	4cc\	-le-	4ee\	-le-
*	*ij	*	*	*	*	*	*	*	*	*	*	*	*	*	*
4f\	Al-	4f\	al-	4a\	al-	4cc\	al-	2F/	-lu-	2a\	-lu-	2cc\	-lu-	2ff\	-lu-
*	*	*	*	*custos:f	*	*	*	*	*	*	*	*	*	*	*
4f\	-le-	4f\	-le-	4f/	-le-	4cc\	-le-	.	.	.	.	.	.	.	.
!	!	!	!	!LO:PB:g=original	!	!	!	!	!	!	!	!	!	!	!
=79-	=79-	=79-	=79-	=79-	=79-	=79-	=79-	=79-	=79-	=79-	=79-	=79-	=79-	=79-	=79-
2B-/	-lu-	2f\	-lu-	2f/	-lu-	2dd\	-lu-	1B-	-ia	1f	-ia	1b-	-ia	1dd	-ia
2B-/	-ia	2f\	-ia	2b-\	-ia	2dd\	-ia	.	.	.	.	.	.	.	.
*	*Xij	*	*	*	*	*	*	*	*Xij	*	*	*	*Xij	*	*Xij
=80-	=80-	=80-	=80-	=80-	=80-	=80-	=80-	=80-	=80-	=80-	=80-	=80-	=80-	=80-	=80-
00r	.	00r	.	00r	.	00r	.	2B-/	Al-	2f\	Al-	4dd\	Al-	4ff\	Al-
.	.	.	.	.	.	.	.	.	.	.	.	4cc\	.	4ee\	.
*	*	*	*	*	*	*	*	*	*	*custos:f	*	*	*	*	*
.	.	.	.	.	.	.	.	2B-/	-le-	2f\	-le-	4b-\	.	4dd\	.
.	.	.	.	.	.	.	.	.	.	.	.	4cc\	.	4ee\	.
!	!	!	!	!	!	!	!	!	!	!LO:LB:g=original	!	!	!	!	!
=81-	=81-	=81-	=81-	=81-	=81-	=81-	=81-	=81-	=81-	=81-	=81-	=81-	=81-	=81-	=81-
.	.	.	.	.	.	.	.	1B-	-lu-	1f	-lu-	4dd\	.	4ff\	.
.	.	.	.	.	.	.	.	.	.	.	.	4cc\	-le-	4ee\	-le-
.	.	.	.	.	.	.	.	.	.	.	.	4b-\	.	4dd\	.
*	*	*	*	*	*	*	*	*	*	*	*	*	*	*custos:dd	*
.	.	.	.	.	.	.	.	.	.	.	.	4a\	.	4cc\	.
!	!	!	!	!	!	!	!	!	!	!	!	!	!	!LO:LB:g=original	!
=82-	=82-	=82-	=82-	=82-	=82-	=82-	=82-	=82-	=82-	=82-	=82-	=82-	=82-	=82-	=82-
.	.	.	.	.	.	.	.	2B-/	-ia	2f\	-ia	2b-\	.	4dd\	.
.	.	.	.	.	.	.	.	.	.	.	.	.	.	4ee\	.
.	.	.	.	.	.	.	.	2F/	al-	2a\	Al-	2cc\	.	2ff\	.
=83-	=83-	=83-	=83-	=83-	=83-	=83-	=83-	=83-	=83-	=83-	=83-	=83-	=83-	=83-	=83-
.	.	.	.	.	.	.	.	1.c	-le-	2g\	-le-	0cc	-lu-	2ee\	.
.	.	.	.	.	.	.	.	.	.	2a\	.	.	.	1ff\	.
=84-	=84-	=84-	=84-	=84-	=84-	=84-	=84-	=84-	=84-	=84-	=84-	=84-	=84-	=84-	=84-
2r	.	2r	.	2r	.	2r	.	.	.	2.g\	.	.	.	.	.
2c/	Al-	2g\	Al-	2cc\	Al-	2cc\	Al-	2c/	-lu-	.	.	.	.	2ee\	-lu-
.	.	.	.	.	.	.	.	.	.	4g\	-lu-	.	.	.	.
=85-	=85-	=85-	=85-	=85-	=85-	=85-	=85-	=85-	=85-	=85-	=85-	=85-	=85-	=85-	=85-
2.f\	-le-	2a\	-le-	2cc\	-le-	2.cc\	-le-	1F	-ia	1f	-ia	1a	-ia	1ff	-ia
.	.	2a\	-lu-	2a\	-lu-	.	.	.	.	.	.	.	.	.	.
4e\	.	.	.	.	.	4cc\	-lu-	.	.	.	.	.	.	.	.
=86-	=86-	=86-	=86-	=86-	=86-	=86-	=86-	=86-	=86-	=86-	=86-	=86-	=86-	=86-	=86-
4d\	.	2f\	-ia	1dd	-ia	4ff\	.	0r	.	0r	.	0r	.	0r	.
4c/	.	.	.	.	.	4ee\	-ia	.	.	.	.	.	.	.	.
4B-/	.	2f\	Al-	.	.	4dd\	.	.	.	.	.	.	.	.	.
4A/	.	.	.	.	.	4cc\	.	.	.	.	.	.	.	.	.
=87-	=87-	=87-	=87-	=87-	=87-	=87-	=87-	=87-	=87-	=87-	=87-	=87-	=87-	=87-	=87-
1.B-	.	1.f	-le-	4dd\	Al-	4b-/	Al-	.	.	.	.	.	.	.	.
.	.	.	.	4cc\	.	4cc\	.	.	.	.	.	.	.	.	.
.	.	.	.	4b-\	.	1dd\	-le-	.	.	.	.	.	.	.	.
.	.	.	.	4a\	.	.	.	.	.	.	.	.	.	.	.
=88-	=88-	=88-	=88-	=88-	=88-	=88-	=88-	=88-	=88-	=88-	=88-	=88-	=88-	=88-	=88-
.	.	.	.	2b-\	-le-	.	.	2r	.	2r	.	2r	.	2r	.
*	*	*	*	*	*	*	*	*	*	*	*	*custos:cc	*	*	*
2B-/	-lu-	2g\	-lu-	2b-\	-lu-	2dd\	-lu-	2B-/	Al-	2g\	Al-	2b-\	Al-	2dd\	Al-
!	!	!	!	!	!	!	!	!	!	!	!	!LO:LB:g=original	!	!	!
=89-	=89-	=89-	=89-	=89-	=89-	=89-	=89-	=89-	=89-	=89-	=89-	=89-	=89-	=89-	=89-
1F	-ia	1a	-ia	1a	-ia	2cc\	-ia	2.f\	-le-	2.f\	-le-	2.cc\	-le-	2.ff\	-le-
.	.	.	.	.	.	2ff\	Al-	.	.	.	.	.	.	.	.
.	.	.	.	.	.	.	.	4e\	.	4f\	-lu-	4cc\	-lu-	4ff\	-lu-
=90-	=90-	=90-	=90-	=90-	=90-	=90-	=90-	=90-	=90-	=90-	=90-	=90-	=90-	=90-	=90-
1F	Al-	1f	al-	1cc	Al-	2ff\	-le-	4d\	.	2f\	-ia	2cc\	-ia	4ff\	-ia
.	.	.	.	.	.	.	.	4c/	.	.	.	.	.	4ee\	.
*	*	*	*	*	*	*custos:ff	*	*	*	*	*	*	*	*	*
.	.	.	.	.	.	2ff\	-lu-	4B-/	.	2f\	Al-	2cc\	al-	4dd\	.
.	.	.	.	.	.	.	.	4A/	.	.	.	.	.	4cc\	al-
!	!	!	!	!	!	!LO:LB:g=original	!	!	!	!	!	!	!	!	!
=91-	=91-	=91-	=91-	=91-	=91-	=91-	=91-	=91-	=91-	=91-	=91-	=91-	=91-	=91-	=91-
!	!	!	!	!	!	!LO:TX:t=P:problem=nadliczbowy takt	!	!	!	!	!	!	!	!	!
1ryy	.	1ryy	.	1ryy	.	4ff\	.	1ryy	.	1ryy	.	1ryy	.	1ryy	.
.	.	.	.	.	.	4ee\	-ia	.	.	.	.	.	.	.	.
.	.	.	.	.	.	4dd\	.	.	.	.	.	.	.	.	.
.	.	.	.	.	.	4cc\	al-	.	.	.	.	.	.	.	.
=92-	=92-	=92-	=92-	=92-	=92-	=92-	=92-	=92-	=92-	=92-	=92-	=92-	=92-	=92-	=92-
1.B-	-le-	1.f	-le-	1.b-	-le-	1.dd	-le-	1.B-	.	1.f	-le-	1.b-	-le-	4dd\	-le-
.	.	.	.	.	.	.	.	.	.	.	.	.	.	4ee\	.
.	.	.	.	.	.	.	.	.	.	.	.	.	.	1ff\	.
=93-	=93-	=93-	=93-	=93-	=93-	=93-	=93-	=93-	=93-	=93-	=93-	=93-	=93-	=93-	=93-
.	.	.	.	.	.	.	.	.	.	.	.	.	.	.	.
2B-/	-lu-	2g\	-lu-	2b-\	-lu-	2dd\	-lu-	2B-/	-lu-	2d/	-lu-	2b-\	-lu-	2ff\	-lu-
=94-	=94-	=94-	=94-	=94-	=94-	=94-	=94-	=94-	=94-	=94-	=94-	=94-	=94-	=94-	=94-
0f;;	-ia	0a;;	-ia	0a;;	-ia	0cc;;	-ia	0F;;	-ia	0f;;	-ia	0cc;;	-ia	0ff;;	-ia
==	==	==	==	==	==	==	==	==	==	==	==	==	==	==	==
*-	*-	*-	*-	*-	*-	*-	*-	*-	*-	*-	*-	*-	*-	*-	*-
!!!system-decoration: [(s1,s2,s3,s4)][(s5,s6,s7,s8)]
!!!ENC: Mateusz Solarz
!!!END: 2021-09-23
!!!ENC: Kamil Watkowski
!!!END: 2021-10-28
